!!!SOCIAL_FUNCTION:	memorial ceremony songs
!!!PDT:	1932
!!!OTL: No_38_Coyote_Eats_the_Heart.krn
!!!REG: Southwest
!!!LANG: Non-Tone
!!!LING_GROUP: Yuman-Cochimi
**kern	**kern
*staff2	*staff1
=1-	=1-
*clefF4	*clefF4
*k[]	*k[]
*M3/4	*M3/4
4GG/	2r
8GG/L	.
8GG/J	.
4GG/	8F\L
.	8F\J
=2	=2
8GG/L	4.c\
8GG/J	.
4GG/	.
.	8c\
8GG/L	4c\
8GG/J	.
=3	=3
2.r	4.c\
.	8c\
.	8c\L
.	8B\J
=4	=4
2.r	4.c\
.	8c\
.	4B\
=5	=5
2.r	4.c\
.	8c\
.	8c\L
.	8A\J
=6	=6
2.r	8B\L
.	[8c\J
.	8c\L]
.	8c\J
.	4A\
=7	=7
2.r	4.A\
.	8c\
.	8A\L
.	8F\J
=8	=8
2.r	4.F\
.	8F\
.	4F\
=9	=9
2.r	4F\
.	4r
.	8c\L
.	8A\J
=10	=10
2.r	8B\L
.	[8c\J
.	8c\L]
.	8c\J
.	4B\
=11	=11
2.r	4.c\
.	8c\
.	8c\L
.	8A\J
=12	=12
2.r	8B\L
.	8c\J
.	8c\L
.	8c\J
.	4A\
=13	=13
2.r	4.F\
.	8c\
.	8A\L
.	8F\J
=14	=14
2.r	4.F\
.	8F\
.	4F\
=15	=15
2.r	4F\
.	8r
.	8F\
.	8F\L
.	8F\J
=16	=16
2.r	8B\L
.	[8c\J
.	8c\L]
.	8c\J
.	4A\
=17	=17
2.r	4.A\
.	8c\
.	8A\L
.	8F\J
=18	=18
2.r	4.F\
.	8F\
.	4F\
=19	=19
2.r	4F\
.	4r
.	8c\L
.	8A\J
=20	=20
2.r	8B\L
.	[8c\J
.	8c\L]
.	8c\J
.	4B\
=21	=21
2.r	4.c\
.	8c\
.	8c\L
.	8A\J
=22	=22
2.r	8B\L
.	[8c\J
.	8c\L]
.	8c\J
.	4A\
=23	=23
2.r	4.A\
.	8c\
.	8A\L
.	8F\J
=24	=24
2.r	4.F\
.	8F\
.	4F\
=25	=25
2.r	4F\
.	8r
.	8F\
.	8F\L
.	8F\J
=26	=26
2.r	8B\L
.	[8c\J
.	8c\L]
.	8c\J
.	4A\
=27	=27
2.r	4.A\
.	8c\
.	8A\L
.	8F\J
=28	=28
2.r	4.F\
.	8F\
.	4F\
=29	=29
2.r	4F\
.	2r
==	==
*-	*-
